src/topics/icons/elasticsearch.svg

<svg height="256" preserveAspectRatio="xMidYMid" viewBox="0 0 256 256" width="256" xmlns="http://www.w3.org/2000/svg"><path d="m255.95919 134.393266c0-21.521466-13.372562-40.1176849-33.222458-47.4308047.835785-4.5968181 1.253678-8.9846899 1.253678-13.7904543 0-39.908739-32.386673-72.29541207-72.295412-72.29541207-23.193037 0-44.92345 11.07415267-58.5049581 30.08826397-6.6862809-5.2236569-14.8351858-7.9399585-23.4019831-7.9399585-21.1035741 0-38.4461151 17.1335947-38.4461151 38.4461151 0 4.5968181.8357851 9.1936362 2.298409 13.3725617-20.0588426 6.8952272-33.6403507 26.1182848-33.6403507 47.4308048 0 21.521467 13.3725618 40.326632 33.4314044 47.639752-.8357851 4.387871-1.2536776 8.98469-1.2536776 13.790454 0 39.699793 32.386673 72.086466 72.0864662 72.086466 23.401983 0 44.923449-11.283099 58.504957-30.088264 6.686281 5.223657 15.044132 8.148905 23.61093 8.148905 21.103574 0 38.446115-17.133595 38.446115-38.446116 0-4.596818-.835785-9.193636-2.298409-13.372561 19.64095-7.104174 33.431404-26.327231 33.431404-47.639752z" fill="#fff"/><path d="m100.085267 110.364444 57.042334 26.118285 57.669172-50.564999c.835786-4.1789256 1.253678-8.3578512 1.253678-12.745723 0-35.5208672-28.834586-64.35545352-64.355453-64.35545352-21.312521 0-41.162417 10.44731392-53.0723549 27.99880122l-9.6115288 49.7292141z" fill="#f4bd19"/><path d="m40.9534704 170.749919c-.8357851 4.178925-1.2536776 8.566797-1.2536776 12.954669 0 35.520867 29.0435326 64.5644 64.5644002 64.5644 21.521466 0 41.371363-10.65626 53.490247-28.207748l9.402582-49.729214-12.745723-24.237768-57.2512799-26.118285z" fill="#3cbeb1"/><path d="m40.5355779 71.9183293 39.0729539 9.1936363 8.7757437-44.5055572c-5.4326033-4.1789255-11.9099379-6.2683883-18.805165-6.2683883-16.9246485 0-30.9240491 13.7904543-30.9240491 30.9240491 0 3.5520867.6268388 7.3131197 1.8805165 10.6562601z" fill="#e9478c"/><path d="m37.1924374 81.3209118c-17.5514873 5.6415495-29.6703714 22.5661982-29.6703714 40.9534702 0 17.96938 11.0741527 34.058244 27.7898549 40.326632l54.9528711-49.729214-10.0294214-21.5214668z" fill="#2c458f"/><path d="m167.783861 219.852294c5.432603 4.178926 11.909938 6.477335 18.596219 6.477335 16.924648 0 30.924049-13.790455 30.924049-30.92405 0-3.761033-.626839-7.313119-1.880517-10.65626l-39.072954-9.193636z" fill="#95c63d"/><path d="m175.72382 165.317315 43.042933 10.029422c17.551487-5.850496 29.670371-22.566198 29.670371-40.953471 0-17.96938-11.074153-33.849297-27.789855-40.3266312l-56.415495 49.3113212z" fill="#176655"/></svg>

<?xml version="1.0" encoding="UTF-8" standalone="no"?>
<svg width="256px" height="256px" viewBox="0 0 256 256" version="1.1" xmlns="http://www.w3.org/2000/svg" xmlns:xlink="http://www.w3.org/1999/xlink" preserveAspectRatio="xMidYMid">
	<g>
		<path d="M255.95919,134.393266 C255.95919,112.8718 242.586628,94.2755811 222.736732,86.9624613 C223.572517,82.3656432 223.99041,77.9777714 223.99041,73.172007 C223.99041,33.263268 191.603737,0.876594931 151.694998,0.876594931 C128.501961,0.876594931 106.771548,11.9507476 93.1900399,30.9648589 C86.503759,25.741202 78.3548541,23.0249004 69.7880568,23.0249004 C48.6844827,23.0249004 31.3419417,40.1584951 31.3419417,61.4710155 C31.3419417,66.0678336 32.1777268,70.6646517 33.6403507,74.8435772 C13.5815081,81.7388044 0,100.961862 0,122.274382 C0,143.795849 13.3725618,162.601014 33.4314044,169.914134 C32.5956193,174.302005 32.1777268,178.898824 32.1777268,183.704588 C32.1777268,223.404381 64.5643998,255.791054 104.264193,255.791054 C127.666176,255.791054 149.187642,244.507955 162.76915,225.70279 C169.455431,230.926447 177.813282,233.851695 186.38008,233.851695 C207.483654,233.851695 224.826195,216.7181 224.826195,195.405579 C224.826195,190.808761 223.99041,186.211943 222.527786,182.033018 C242.168736,174.928844 255.95919,155.705787 255.95919,134.393266 L255.95919,134.393266 Z" fill="#FFFFFF"></path>
		<path d="M100.085267,110.364444 L157.127601,136.482729 L214.796773,85.91773 C215.632559,81.7388044 216.050451,77.5598788 216.050451,73.172007 C216.050451,37.6511398 187.215865,8.81655348 151.694998,8.81655348 C130.382477,8.81655348 110.532581,19.2638674 98.6226431,36.8153547 L89.0111143,86.5445688 L100.085267,110.364444 L100.085267,110.364444 Z" fill="#F4BD19"></path>
		<path d="M40.9534704,170.749919 C40.1176853,174.928844 39.6997928,179.316716 39.6997928,183.704588 C39.6997928,219.225455 68.7433254,248.268988 104.264193,248.268988 C125.785659,248.268988 145.635556,237.612728 157.75444,220.06124 L167.157022,170.332026 L154.411299,146.094258 L97.1600191,119.975973 L40.9534704,170.749919 L40.9534704,170.749919 Z" fill="#3CBEB1"></path>
		<path d="M40.5355779,71.9183293 L79.6085318,81.1119656 L88.3842755,36.6064084 C82.9516722,32.4274829 76.4743376,30.3380201 69.5791105,30.3380201 C52.654462,30.3380201 38.6550614,44.1284744 38.6550614,61.2620692 C38.6550614,64.8141559 39.2819002,68.5751889 40.5355779,71.9183293 L40.5355779,71.9183293 Z" fill="#E9478C"></path>
		<path d="M37.1924374,81.3209118 C19.6409501,86.9624613 7.522066,103.88711 7.522066,122.274382 C7.522066,140.243762 18.5962187,156.332626 35.3119209,162.601014 L90.264792,112.8718 L80.2353706,91.3503332 L37.1924374,81.3209118 L37.1924374,81.3209118 Z" fill="#2C458F"></path>
		<path d="M167.783861,219.852294 C173.216464,224.03122 179.693799,226.329629 186.38008,226.329629 C203.304728,226.329629 217.304129,212.539174 217.304129,195.405579 C217.304129,191.644546 216.67729,188.09246 215.423612,184.749319 L176.350658,175.555683 L167.783861,219.852294 L167.783861,219.852294 Z" fill="#95C63D"></path>
		<path d="M175.72382,165.317315 L218.766753,175.346737 C236.31824,169.496241 248.437124,152.780539 248.437124,134.393266 C248.437124,116.423886 237.362971,100.543969 220.647269,94.0666348 L164.231774,143.377956 L175.72382,165.317315 L175.72382,165.317315 Z" fill="#176655"></path>
	</g>
</svg>
